X: 04027
T: EARL BROCK'S HORNPIPE
C: Bob McQuillen Aug '78
B: Bob's Note Book 04 #27
R: hornpipe, reel
Z: 2020 John Chambers <jc:trillian.mit.edu>
M: C
L: 1/8
K: Am
cA \
| EAAA EAAc | BAGA E2cA | EAAA EAAB | cBcd e2cA |\
| EAAA EAAc | BAGA E2cd | eaag ecde | c2A2 A2 :|
|: cd \
| eaag aged | cede cAcd | eaag agec | dedB G2AG |\
| EAAG A2ed | cAAG A2cd | eaag edcA | E2A2 A2 :|
%%begintext align
%% Fox Hollow Festival would
%% sure be in a "heap o' trouble"
%% if it weren't for Earl's hard
%% work. Thanks, Earl!
%%endtext
